picto/emergency-exit-right.svg

<svg class="color-immutable" width="24" height="24" viewBox="0 0 24 24" fill="none" xmlns="http://www.w3.org/2000/svg"><path d="M0 22.5V1.5C0 0.675 0.675 0 1.5 0H22.5C23.325 0 24 0.675 24 1.5V22.5C24 23.325 23.325 24 22.5 24H1.5C0.675 24 0 23.325 0 22.5Z" fill="#237F52"/><path d="M8.18494 3V13.322H5.10094C4.52794 13.322 4.06494 13.786 4.06494 14.357C4.06494 14.93 4.52794 15.392 5.10094 15.394L8.18394 15.393V19.758L6.94494 21H12.9679L13.9579 19.944C14.2149 19.67 14.7569 19.551 15.1689 19.681C15.5799 19.81 15.7039 20.138 15.4469 20.414L14.8969 21H18.6879L19.9359 19.757V3H8.18494ZM18.1429 4.613C18.8889 4.613 19.4939 5.217 19.4939 5.963C19.4939 6.708 18.8889 7.313 18.1429 7.313C17.3989 7.313 16.7939 6.708 16.7939 5.963C16.7929 5.217 17.3979 4.613 18.1429 4.613ZM19.1609 11.933H16.7029C16.4159 11.933 16.1829 11.701 16.1829 11.413V9.474L13.9059 11.753L15.9809 13.828C16.1119 13.96 16.1829 14.134 16.1829 14.319V18.512C16.1829 18.894 15.8729 19.205 15.4909 19.205C15.1089 19.205 14.7979 18.894 14.7979 18.512V14.703L12.1899 12.097L9.43894 14.848C9.30894 14.979 9.13294 15.05 8.94994 15.05H5.10094C4.71794 15.05 4.40894 14.74 4.40894 14.358C4.40894 13.974 4.71794 13.665 5.10094 13.665H8.56394L14.4859 7.742H13.1139L11.1879 9.67C11.0959 9.761 10.9729 9.811 10.8439 9.811C10.5759 9.811 10.3589 9.593 10.3589 9.327C10.3589 9.197 10.4099 9.074 10.5009 8.984L12.5439 6.941C12.6729 6.811 12.8499 6.737 13.0339 6.737H15.4539C16.4119 6.737 17.1869 7.513 17.1869 8.469V10.893H19.1599C19.4479 10.893 19.6799 11.125 19.6799 11.412C19.6809 11.701 19.4479 11.933 19.1609 11.933Z" fill="white"/></svg>

<svg class="color-immutable" width="24" height="24" viewBox="0 0 24 24" fill="none" xmlns="http://www.w3.org/2000/svg"><g clip-path="url(#a)"><path d="M0 22.5v-21C0 .675.675 0 1.5 0h21c.825 0 1.5.675 1.5 1.5v21c0 .825-.675 1.5-1.5 1.5h-21C.675 24 0 23.325 0 22.5Z" fill="#237F52"/><path d="M8.185 3v10.322H5.1a1.035 1.035 0 1 0 0 2.072l3.083-.001v4.365L6.944 21h6.024l.99-1.056c.257-.274.799-.393 1.21-.263.412.129.536.457.279.733l-.55.586h3.79l1.249-1.243V3H8.185Zm9.958 1.613a1.35 1.35 0 1 1 .001 2.7 1.35 1.35 0 0 1-.001-2.7Zm1.018 7.32h-2.458a.52.52 0 0 1-.52-.52V9.474l-2.277 2.279 2.075 2.075a.691.691 0 0 1 .202.491v4.193a.693.693 0 0 1-1.385 0v-3.809l-2.608-2.606-2.751 2.751a.687.687 0 0 1-.49.202H5.102a.692.692 0 1 1 0-1.385h3.463l5.922-5.923h-1.372L11.188 9.67a.487.487 0 0 1-.83-.343.48.48 0 0 1 .143-.343l2.043-2.043a.692.692 0 0 1 .49-.204h2.42c.958 0 1.733.776 1.733 1.732v2.424h1.973c.288 0 .52.232.52.519a.518.518 0 0 1-.52.521Z" fill="#fff"/></g><defs><clipPath id="a"><path fill="#fff" d="M0 0h24v24H0z"/></clipPath></defs></svg>
